src/images/hamburgermenu.svg

<svg xmlns="http://www.w3.org/2000/svg" width="18" height="15" fill="none"><path fill="#242A45" fill-rule="evenodd" d="M0 0h18v3H0V0Zm0 6h18v3H0V6Zm18 6H0v3h18v-3Z" clip-rule="evenodd"/></svg>

<svg width="18" height="15" viewBox="0 0 18 15" fill="none" xmlns="http://www.w3.org/2000/svg">
<g id="Combined Shape 2">
<path id="Combined Shape" fill-rule="evenodd" clip-rule="evenodd" d="M0 0H18V3H0V0ZM0 6H18V9H0V6ZM18 12H0V15H18V12Z" fill="#242A45"/>
</g>
</svg>
